svgs/sharp-light/play-pause.svg

<svg xmlns="http://www.w3.org/2000/svg" viewBox="0 0 640 512"><!--! Font Awesome Pro 6.6.0 by @fontawesome - https://fontawesome.com License - https://fontawesome.com/license (Commercial License) Copyright 2024 Fonticons, Inc. --><path d="M64 448l0-40 0-304 0-40L96 88 293.3 236 320 256l-26.7 20L96 424 64 448zM266.7 256L96 128l0 256L266.7 256zM448 80l0 352 0 16-32 0 0-16 0-352 0-16 32 0 0 16zm128 0l0 352 0 16-32 0 0-16 0-352 0-16 32 0 0 16z"/></svg>

<svg xmlns="http://www.w3.org/2000/svg" viewBox="0 0 640 512"><!--! Font Awesome Pro 6.4.2 by @fontawesome - https://fontawesome.com License - https://fontawesome.com/license (Commercial License) Copyright 2023 Fonticons, Inc. --><path d="M64 448V408 104 64L96 88 293.3 236 320 256l-26.7 20L96 424 64 448zM266.7 256L96 128V384L266.7 256zM448 80V432v16H416V432 80 64h32V80zm128 0V432v16H544V432 80 64h32V80z"/></svg>
